src/assets/svg-icons/kitty-icon.svg

<svg width="77" height="76" viewBox="0 0 77 76" fill="none" xmlns="http://www.w3.org/2000/svg">
<g filter="url(#filter0_d_2569_3081)">
<circle cx="38.5" cy="34" r="33.75" fill="url(#paint0_radial_2569_3081)" stroke="url(#paint1_radial_2569_3081)" stroke-width="0.5"/>
<g clip-path="url(#clip0_2569_3081)">
<path d="M33.5884 54.533C33.5338 54.533 33.4784 54.5257 33.4232 54.5104C33.0959 54.4194 32.9043 54.0802 32.9953 53.7528L33.9647 50.267C34.0556 49.9397 34.3946 49.7478 34.7222 49.8391C35.0495 49.9301 35.2412 50.2693 35.1501 50.5967L34.1807 54.0825C34.1051 54.3547 33.8579 54.533 33.5884 54.533Z" fill="#B77866"/>
<path d="M34.5585 52.2189C34.4001 52.2189 34.2389 52.1978 34.0787 52.1531C33.1282 51.8887 32.5719 50.9039 32.8363 49.9533L33.7557 46.6472C34.02 45.6967 35.0045 45.14 35.9556 45.4048C36.9062 45.6691 37.4625 46.654 37.1981 47.6046L36.2786 50.9107C36.0589 51.7011 35.3408 52.2189 34.5585 52.2189Z" fill="#EDA751"/>
<path d="M46.9142 48.3212C46.0836 48.3212 45.2976 48.086 44.5404 47.6145C43.4816 46.9552 42.6611 45.9505 41.7925 44.8869L41.7292 44.8094C41.3391 44.3319 41.4099 43.6284 41.8875 43.2382C42.3651 42.848 43.0685 42.9191 43.4587 43.3966L43.5221 43.4744C45.2452 45.5842 46.1562 46.5672 48.0237 45.8554C51.7477 44.437 54.157 44.4146 56.3394 45.7786C56.8624 46.1054 57.0213 46.7943 56.6945 47.3172C56.3677 47.8402 55.6789 47.9993 55.1558 47.6723C53.6221 46.7138 51.8454 46.7894 48.8186 47.9424C48.156 48.1947 47.5231 48.3212 46.9142 48.3212Z" fill="#EDA751"/>
<path d="M56.3396 45.7789C56.0711 45.6111 55.7993 45.4646 55.522 45.3389C55.0609 45.6526 54.5002 46.3487 54.4177 47.3001C54.6722 47.3991 54.917 47.5233 55.1559 47.6726C55.679 47.9996 56.3678 47.8405 56.6946 47.3175C57.0215 46.7945 56.8625 46.1056 56.3396 45.7789Z" fill="#FCD79D"/>
<path d="M42.2565 54.9999C42.2286 54.9999 42.2005 54.9994 42.1723 54.998C41.1867 54.9524 40.4248 54.1162 40.4705 53.1305C40.5478 51.4651 40.3294 49.1455 39.8299 48.1465C39.3886 47.2639 39.7463 46.1908 40.6289 45.7495C41.5116 45.3083 42.5846 45.666 43.0258 46.5485C43.9845 48.4659 44.1142 51.6922 44.0398 53.2962C43.9953 54.2536 43.205 54.9999 42.2565 54.9999Z" fill="#EDA751"/>
<path d="M27.3537 45.1783C26.0702 45.1783 24.8224 44.7449 23.6254 43.8807C22.8254 43.3031 22.6452 42.1863 23.2228 41.3864C23.8003 40.5865 24.917 40.4062 25.717 40.9838C27.4095 42.2057 28.6922 41.562 31.1074 39.5497C31.8653 38.9183 32.9919 39.0206 33.6236 39.7789C34.2551 40.5369 34.1526 41.6634 33.3945 42.295C32.1882 43.3 30.8808 44.3247 29.3328 44.8431C28.6654 45.0667 28.0049 45.1783 27.3537 45.1783Z" fill="#EDA751"/>
<path d="M47.9037 43.2841C46.5382 43.2841 45.2381 42.9934 44.31 42.5C43.4389 42.0368 43.108 40.9551 43.5713 40.0838C44.0345 39.2128 45.1159 38.8818 45.9874 39.3451C47.1452 39.9607 49.9995 39.8443 50.7693 38.6462C51.3027 37.816 52.408 37.5757 53.2381 38.1089C54.0682 38.6423 54.3087 39.7476 53.7754 40.5777C52.5339 42.5098 50.1319 43.2841 47.9037 43.2841Z" fill="#EDA751"/>
<path opacity="0.2" d="M35.9558 45.4047C35.0047 45.1401 34.0202 45.6967 33.7559 46.6472L32.9766 49.4494C33.9609 50.1099 35.079 50.6046 36.2844 50.8906L37.1983 47.6046C37.4626 46.654 36.9063 45.6691 35.9558 45.4047Z" fill="#A35F00"/>
<path opacity="0.2" d="M43.0258 46.5485C42.5846 45.666 41.5116 45.3083 40.6289 45.7495C39.7463 46.1908 39.3886 47.2639 39.8299 48.1465C40.1371 48.7609 40.3378 49.8752 40.4289 51.0295C41.6786 50.8211 42.8476 50.3905 43.8888 49.7835C43.7389 48.6187 43.4724 47.4417 43.0258 46.5485Z" fill="#A35F00"/>
<path opacity="0.2" d="M47.5512 46.0038C45.9897 46.3842 45.0934 45.398 43.5224 43.4743L43.4589 43.3966C43.0686 42.9191 42.3653 42.848 41.8877 43.2382C41.4101 43.6285 41.3393 44.3319 41.7294 44.8094L41.7927 44.8869C42.6614 45.9505 43.4818 46.9552 44.5406 47.6145C44.9921 47.8956 45.454 48.0921 45.9294 48.2055C46.576 47.552 47.1241 46.8111 47.5512 46.0038Z" fill="#A35F00"/>
<path opacity="0.2" d="M48.3058 39.6948C47.4195 39.7574 46.5225 39.6297 45.9877 39.3452C45.1162 38.8819 44.0347 39.2129 43.5715 40.084C43.1083 40.9552 43.4391 42.0369 44.3103 42.5001C45.2384 42.9936 46.5384 43.2843 47.904 43.2843C48.0917 43.2843 48.2807 43.2783 48.47 43.267C48.5428 42.8128 48.5808 42.348 48.5808 41.875C48.5807 41.1243 48.4851 40.3944 48.3058 39.6948Z" fill="#A35F00"/>
<path opacity="0.2" d="M31.1076 39.5507C30.2287 40.2829 29.5002 40.8329 28.847 41.1788C28.8288 41.4089 28.8193 41.6413 28.8193 41.8756C28.8193 42.9128 29.0009 43.9108 29.3355 44.8432C30.8825 44.3245 32.189 43.3004 33.3948 42.296C34.1528 41.6644 34.2555 40.5379 33.6239 39.7798C32.9921 39.0215 31.8655 38.9192 31.1076 39.5507Z" fill="#A35F00"/>
<path d="M38.7002 49.5313C43.2511 49.5313 46.9403 46.1033 46.9403 41.8746C46.9403 37.6458 43.2511 34.2178 38.7002 34.2178C34.1494 34.2178 30.4602 37.6458 30.4602 41.8746C30.4602 46.1033 34.1494 49.5313 38.7002 49.5313Z" fill="#FCD690"/>
<path opacity="0.15" d="M37.4968 49.4505C33.7314 46.9782 34.8983 41.9113 35.5375 39.6954V34.8027C32.5563 35.9552 30.46 38.6875 30.46 41.875C30.46 45.7239 33.5164 48.9091 37.4968 49.4505Z" fill="#C17A00"/>
<path d="M33.6855 28.5974C35.2979 27.2445 36.3745 24.9732 34.1001 21.6157C31.8079 18.2316 28.395 17.3834 25.7306 17.6973C25.0737 17.7746 24.5225 18.2371 24.3323 18.8707C23.5605 21.4401 23.8032 24.9484 26.7378 27.7935C29.6493 30.6161 32.0731 29.9503 33.6855 28.5974Z" fill="#EDA751"/>
<path d="M24.2249 19.2637C23.5921 21.79 23.9499 25.0906 26.7377 27.7933C29.2613 30.2401 31.418 30.0652 32.998 29.0944C31.9114 21.7176 27.1645 19.7615 24.2249 19.2637Z" fill="#FF91AB"/>
<path d="M43.7148 28.5974C42.1024 27.2445 41.0258 24.9732 43.3001 21.6157C45.5924 18.2316 49.0052 17.3834 51.6697 17.6973C52.3266 17.7746 52.8777 18.2371 53.068 18.8707C53.8398 21.4401 53.597 24.9484 50.6624 27.7935C47.7509 30.6161 45.3272 29.9503 43.7148 28.5974Z" fill="#EDA751"/>
<path d="M53.1752 19.2637C53.8079 21.79 53.4502 25.0906 50.6625 27.7933C48.1388 30.2401 45.9821 30.0652 44.4021 29.0944C45.4888 21.7176 50.2356 19.7615 53.1752 19.2637Z" fill="#FF91AB"/>
<path d="M52.7289 30.6396C52.7289 37.0539 46.448 39.8633 38.7002 39.8633C30.9523 39.8633 24.6714 37.0539 24.6714 30.6396C24.6714 24.2253 30.9523 19.0254 38.7002 19.0254C46.4481 19.0254 52.7289 24.2253 52.7289 30.6396Z" fill="#FFDC9C"/>
<path opacity="0.15" d="M31.2095 20.8184C27.2806 22.8765 24.6714 26.5055 24.6714 30.6394C24.6714 36.1533 29.3128 39.0033 35.5376 39.6948C26.6021 34.3573 27.7675 27.1781 31.2095 20.8184Z" fill="#C17A00"/>
<path d="M31.8162 32.9323C33.2191 32.9323 34.3563 32.0267 34.3563 30.9095C34.3563 29.7924 33.2191 28.8867 31.8162 28.8867C30.4134 28.8867 29.2761 29.7924 29.2761 30.9095C29.2761 32.0267 30.4134 32.9323 31.8162 32.9323Z" fill="#FF91AB"/>
<path d="M45.5843 32.9323C46.9871 32.9323 48.1244 32.0267 48.1244 30.9095C48.1244 29.7924 46.9871 28.8867 45.5843 28.8867C44.1814 28.8867 43.0442 29.7924 43.0442 30.9095C43.0442 32.0267 44.1814 32.9323 45.5843 32.9323Z" fill="#FF91AB"/>
<path d="M33.2964 29.5074C32.9565 29.5074 32.6812 29.232 32.6812 28.8921V27.9951C32.6812 27.6553 32.9565 27.3799 33.2964 27.3799C33.6362 27.3799 33.9116 27.6553 33.9116 27.9951V28.8921C33.9116 29.232 33.6362 29.5074 33.2964 29.5074Z" fill="#495059"/>
<path d="M44.1035 29.5074C43.7637 29.5074 43.4883 29.232 43.4883 28.8921V27.9951C43.4883 27.6553 43.7637 27.3799 44.1035 27.3799C44.4433 27.3799 44.7187 27.6553 44.7187 27.9951V28.8921C44.7187 29.232 44.4433 29.5074 44.1035 29.5074Z" fill="#495059"/>
<path d="M38.7 30.1959C37.9762 30.1959 37.2878 29.8824 36.8116 29.3359C36.5883 29.0797 36.6151 28.6911 36.8712 28.4678C37.1273 28.2446 37.516 28.2713 37.7393 28.5275C37.9818 28.8059 38.3321 28.9655 38.7001 28.9655C39.0681 28.9655 39.4184 28.8059 39.6609 28.5275C39.884 28.2713 40.2726 28.2447 40.529 28.4678C40.7851 28.6911 40.8118 29.0797 40.5886 29.3359C40.1122 29.8824 39.4239 30.1959 38.7 30.1959Z" fill="#495059"/>
<path d="M28.2341 31.2894C27.9585 31.2894 27.7076 31.1027 27.6376 30.8232C27.5553 30.4935 27.7557 30.1595 28.0853 30.077C28.7888 29.9011 30.4652 29.776 31.282 29.8838C31.6188 29.9284 31.8558 30.2376 31.8113 30.5744C31.7668 30.9114 31.4571 31.1482 31.1207 31.1037C30.4804 31.0189 28.9426 31.131 28.3838 31.2707C28.3338 31.2834 28.2835 31.2894 28.2341 31.2894Z" fill="#495059"/>
<path d="M29.0433 34.299C28.8546 34.299 28.6685 34.2125 28.5478 34.0491C28.346 33.7758 28.404 33.3906 28.6774 33.1888C29.2606 32.7582 30.7629 32.0037 31.5592 31.7922C31.8877 31.7051 32.2246 31.9005 32.3118 32.2289C32.399 32.5573 32.2034 32.8942 31.8751 32.9815C31.2506 33.1473 29.8716 33.8366 29.4082 34.1788C29.2983 34.2599 29.1702 34.299 29.0433 34.299Z" fill="#495059"/>
<path d="M49.1658 31.2893C49.1164 31.2893 49.0663 31.2833 49.0161 31.2707C48.4572 31.131 46.9195 31.0189 46.2792 31.1037C45.9427 31.1481 45.6333 30.9114 45.5886 30.5745C45.5441 30.2376 45.7811 29.9284 46.1179 29.8838C46.9345 29.776 48.6111 29.9011 49.3146 30.077C49.6442 30.1595 49.8446 30.4935 49.7623 30.8232C49.6923 31.1027 49.4415 31.2893 49.1658 31.2893Z" fill="#495059"/>
<path d="M48.3566 34.2991C48.2296 34.2991 48.1016 34.26 47.9917 34.1788C47.5283 33.8368 46.1494 33.1474 45.5249 32.9815C45.1964 32.8943 45.0009 32.5573 45.0881 32.229C45.1755 31.9005 45.5127 31.7051 45.8407 31.7922C46.6371 32.0037 48.1393 32.7583 48.7225 33.1888C48.9959 33.3906 49.0539 33.7758 48.8521 34.0491C48.7314 34.2127 48.5452 34.2991 48.3566 34.2991Z" fill="#495059"/>
<path d="M47.9212 28.098C44.2337 28.098 40.8267 27.5936 38.3448 27.0901C34.3043 26.2704 30.4504 25.007 27.7711 23.624C27.4692 23.4682 27.3508 23.097 27.5067 22.7951C27.6624 22.493 28.0338 22.3747 28.3356 22.5306C32.5517 24.7069 42.7174 27.7447 52.0463 26.6321C52.3828 26.5923 52.6899 26.8326 52.7301 27.1701C52.7703 27.5075 52.5294 27.8137 52.192 27.8539C50.7517 28.0258 49.3163 28.098 47.9212 28.098Z" fill="#495059"/>
<path d="M42.3906 26.3946C42.1625 26.471 42.0088 26.6846 42.0088 26.9252V28.3922C42.0088 29.5281 42.892 30.4954 44.0272 30.5358C45.2189 30.5781 46.1984 29.6247 46.1984 28.4424V26.9252C46.1984 26.6846 46.0446 26.471 45.8165 26.3946C44.7049 26.0221 43.5022 26.0221 42.3906 26.3946Z" fill="#495059"/>
<path d="M34.3224 22.6942C33.0976 22.6942 31.9763 22.007 31.4204 20.9156L30.9154 19.9242C30.4256 18.9626 31.3053 17.8749 32.3481 18.1528L33.2212 18.3854C33.8505 18.5531 34.4668 18.0705 34.4497 17.4195C34.4443 17.2146 34.4526 17.0062 34.4756 16.7952C34.5113 16.4681 34.5821 16.1514 34.684 15.8488C35.9635 12.0504 41.4365 12.0504 42.716 15.8488C42.8179 16.1514 42.8886 16.4681 42.9243 16.7952C42.9474 17.0062 42.9557 17.2146 42.9502 17.4195C42.9331 18.0705 43.5495 18.5531 44.1787 18.3854L45.0518 18.1528C46.0947 17.8749 46.9744 18.9626 46.4846 19.9242L45.9796 20.9156C45.4236 22.0069 44.3024 22.6942 43.0776 22.6942H34.3224Z" fill="#495059"/>
<path d="M37.4905 19.551C37.333 19.551 37.1756 19.4909 37.0554 19.3707C36.8152 19.1305 36.8152 18.741 37.0555 18.5007L39.4748 16.0815C39.715 15.8413 40.1046 15.8413 40.3448 16.0816C40.5851 16.3219 40.5851 16.7114 40.3447 16.9516L37.9255 19.3708C37.8054 19.4909 37.6479 19.551 37.4905 19.551Z" fill="white"/>
<path d="M39.9098 19.551C39.7524 19.551 39.5949 19.4909 39.4748 19.3708L37.0555 16.9516C36.8152 16.7113 36.8152 16.3218 37.0554 16.0816C37.2958 15.8413 37.6854 15.8413 37.9255 16.0815L40.3447 18.5007C40.5851 18.7411 40.5851 19.1305 40.3448 19.3707C40.2247 19.4909 40.0672 19.551 39.9098 19.551Z" fill="white"/>
<path d="M24.6003 40.6992L22.3708 41.2966L23.1087 44.0502C23.2737 44.6658 23.9065 45.0312 24.5221 44.8662C25.1378 44.7013 25.5031 44.0685 25.3382 43.4528L24.6003 40.6992Z" fill="#B77866"/>
<path d="M18.8293 24.003C17.6403 27.7611 17.99 31.8373 19.802 35.3377L21.8249 39.2457L24.0483 38.6499L20.1314 24.0321C19.9559 23.3771 19.0339 23.3565 18.8293 24.003Z" fill="#DEE2E5"/>
<path d="M26.3252 40.2368L20.6458 41.7586C20.3497 41.8379 20.0454 41.6622 19.966 41.366L19.7041 40.3886C19.6248 40.0925 19.8005 39.7882 20.0966 39.7089L25.776 38.187C26.0722 38.1077 26.3765 38.2834 26.4558 38.5795L26.7178 39.5569C26.7971 39.8531 26.6214 40.1575 26.3252 40.2368Z" fill="#BD4568"/>
</g>
</g>
<defs>
<filter id="filter0_d_2569_3081" x="0.5" y="0" width="76" height="76" filterUnits="userSpaceOnUse" color-interpolation-filters="sRGB">
<feFlood flood-opacity="0" result="BackgroundImageFix"/>
<feColorMatrix in="SourceAlpha" type="matrix" values="0 0 0 0 0 0 0 0 0 0 0 0 0 0 0 0 0 0 127 0" result="hardAlpha"/>
<feOffset dy="4"/>
<feGaussianBlur stdDeviation="2"/>
<feComposite in2="hardAlpha" operator="out"/>
<feColorMatrix type="matrix" values="0 0 0 0 0 0 0 0 0 0 0 0 0 0 0 0 0 0 0.25 0"/>
<feBlend mode="normal" in2="BackgroundImageFix" result="effect1_dropShadow_2569_3081"/>
<feBlend mode="normal" in="SourceGraphic" in2="effect1_dropShadow_2569_3081" result="shape"/>
</filter>
<radialGradient id="paint0_radial_2569_3081" cx="0" cy="0" r="1" gradientUnits="userSpaceOnUse" gradientTransform="translate(4.50001 -8.79767) rotate(56.931) scale(144.161 2536.15)">
<stop stop-color="#467EEE" stop-opacity="0.42"/>
<stop offset="1" stop-color="#6C6C6C" stop-opacity="0"/>
</radialGradient>
<radialGradient id="paint1_radial_2569_3081" cx="0" cy="0" r="1" gradientUnits="userSpaceOnUse" gradientTransform="translate(5.70319 -0.0364984) rotate(45.8762) scale(111.163 161.681)">
<stop stop-color="white" stop-opacity="0.8"/>
<stop offset="1" stop-color="white" stop-opacity="0"/>
</radialGradient>
<clipPath id="clip0_2569_3081">
<rect width="42" height="42" fill="white" transform="translate(16.5 13)"/>
</clipPath>
</defs>
</svg>

<svg xmlns="http://www.w3.org/2000/svg" width="77" height="76" fill="none" viewBox="0 0 77 76"><g filter="url(#a)"><circle cx="38.5" cy="34" r="33.75" fill="url(#b)" stroke="url(#c)" stroke-width=".5"/><g clip-path="url(#d)"><path fill="#B77866" d="M33.588 54.533a.617.617 0 0 1-.593-.78l.97-3.486a.615.615 0 1 1 1.185.33l-.97 3.486a.615.615 0 0 1-.592.45Z"/><path fill="#EDA751" d="M34.559 52.219a1.786 1.786 0 0 1-1.722-2.266l.919-3.306a1.786 1.786 0 1 1 3.442.958l-.92 3.306a1.787 1.787 0 0 1-1.72 1.308Zm12.355-3.898c-.83 0-1.616-.235-2.374-.706-1.058-.66-1.879-1.665-2.748-2.728l-.063-.078a1.117 1.117 0 0 1 1.73-1.412l.063.077c1.723 2.11 2.634 3.093 4.502 2.381 3.724-1.418 6.133-1.44 8.315-.076a1.117 1.117 0 1 1-1.183 1.893c-1.534-.958-3.31-.883-6.337.27-.663.253-1.296.38-1.905.38Z"/><path fill="#FCD79D" d="M56.34 45.779a6.975 6.975 0 0 0-.818-.44c-.461.314-1.022 1.01-1.104 1.961.254.1.499.223.738.373a1.116 1.116 0 1 0 1.184-1.894Z"/><path fill="#EDA751" d="M42.257 55c-.028 0-.056 0-.085-.002a1.786 1.786 0 0 1-1.701-1.867c.077-1.666-.142-3.986-.641-4.984a1.787 1.787 0 1 1 3.196-1.599c.958 1.918 1.088 5.144 1.014 6.748A1.787 1.787 0 0 1 42.257 55Zm-14.903-9.822c-1.284 0-2.532-.433-3.729-1.297a1.787 1.787 0 0 1 2.092-2.897c1.693 1.222 2.975.578 5.39-1.434a1.787 1.787 0 0 1 2.288 2.745c-1.207 1.005-2.514 2.03-4.062 2.548a6.206 6.206 0 0 1-1.98.335Zm20.55-1.894c-1.366 0-2.666-.29-3.594-.784a1.787 1.787 0 0 1 1.677-3.155c1.158.616 4.012.5 4.782-.699a1.787 1.787 0 0 1 3.006 1.932c-1.241 1.932-3.643 2.706-5.871 2.706Z"/><path fill="#A35F00" d="M35.956 45.405a1.786 1.786 0 0 0-2.2 1.242l-.78 2.802c.985.66 2.103 1.156 3.308 1.442l.914-3.286a1.787 1.787 0 0 0-1.242-2.2Zm7.07 1.143a1.787 1.787 0 1 0-3.196 1.599c.307.614.508 1.728.599 2.883a10.197 10.197 0 0 0 3.46-1.247c-.15-1.164-.417-2.341-.863-3.235Z" opacity=".2"/><path fill="#A35F00" d="M47.551 46.004c-1.561.38-2.458-.606-4.029-2.53l-.063-.077a1.117 1.117 0 0 0-1.73 1.412l.064.078c.868 1.063 1.689 2.068 2.748 2.727.451.282.913.478 1.388.592a9.353 9.353 0 0 0 1.622-2.202Zm.755-6.309c-.886.062-1.783-.065-2.318-.35A1.787 1.787 0 1 0 44.31 42.5c.928.494 2.228.784 3.594.784.188 0 .377-.006.566-.017a8.79 8.79 0 0 0-.164-3.572Zm-17.198-.145c-.88.733-1.608 1.283-2.261 1.629a8.765 8.765 0 0 0 .488 3.664c1.547-.518 2.854-1.543 4.06-2.547a1.787 1.787 0 0 0-2.287-2.745Z" opacity=".2"/><path fill="#FCD690" d="M38.7 49.531c4.551 0 8.24-3.428 8.24-7.656 0-4.23-3.689-7.657-8.24-7.657-4.55 0-8.24 3.428-8.24 7.657 0 4.228 3.69 7.656 8.24 7.656Z"/><path fill="#C17A00" d="M37.497 49.45c-3.766-2.472-2.599-7.539-1.96-9.755v-4.892c-2.98 1.152-5.077 3.885-5.077 7.072 0 3.849 3.056 7.034 7.037 7.575Z" opacity=".15"/><path fill="#EDA751" d="M33.685 28.597c1.613-1.353 2.69-3.624.415-6.981-2.292-3.384-5.705-4.233-8.37-3.919a1.666 1.666 0 0 0-1.398 1.174c-.771 2.57-.529 6.077 2.406 8.923 2.911 2.822 5.335 2.156 6.947.803Z"/><path fill="#FF91AB" d="M24.225 19.264c-.633 2.526-.275 5.827 2.513 8.53 2.523 2.446 4.68 2.271 6.26 1.3-1.087-7.376-5.833-9.332-8.773-9.83Z"/><path fill="#EDA751" d="M43.715 28.597c-1.613-1.353-2.69-3.624-.415-6.981 2.292-3.384 5.705-4.233 8.37-3.919.657.078 1.208.54 1.398 1.174.772 2.57.529 6.077-2.406 8.923-2.911 2.822-5.335 2.156-6.947.803Z"/><path fill="#FF91AB" d="M53.175 19.264c.633 2.526.275 5.827-2.512 8.53-2.524 2.446-4.68 2.271-6.26 1.3 1.086-7.376 5.833-9.332 8.772-9.83Z"/><path fill="#FFDC9C" d="M52.729 30.64c0 6.414-6.281 9.223-14.029 9.223s-14.029-2.81-14.029-9.223c0-6.415 6.281-11.615 14.03-11.615 7.747 0 14.028 5.2 14.028 11.615Z"/><path fill="#C17A00" d="M31.21 20.818c-3.93 2.058-6.539 5.688-6.539 9.821 0 5.514 4.642 8.364 10.867 9.056-8.936-5.338-7.77-12.517-4.328-18.877Z" opacity=".15"/><path fill="#FF91AB" d="M31.816 32.932c1.403 0 2.54-.905 2.54-2.023 0-1.117-1.137-2.022-2.54-2.022s-2.54.905-2.54 2.023c0 1.117 1.137 2.022 2.54 2.022Zm13.768 0c1.403 0 2.54-.905 2.54-2.023 0-1.117-1.137-2.022-2.54-2.022s-2.54.905-2.54 2.023c0 1.117 1.137 2.022 2.54 2.022Z"/><path fill="#495059" d="M33.296 29.507a.615.615 0 0 1-.615-.615v-.897a.615.615 0 1 1 1.23 0v.897c0 .34-.275.615-.615.615Zm10.807 0a.615.615 0 0 1-.615-.615v-.897a.615.615 0 1 1 1.23 0v.897c0 .34-.275.615-.615.615Zm-5.403.689a2.505 2.505 0 0 1-1.888-.86.615.615 0 1 1 .927-.808 1.274 1.274 0 0 0 1.922 0 .615.615 0 0 1 .928.808 2.505 2.505 0 0 1-1.889.86ZM28.234 31.29a.616.616 0 0 1-.149-1.213c.704-.176 2.38-.301 3.197-.193a.615.615 0 0 1-.161 1.22c-.64-.085-2.178.027-2.737.167a.608.608 0 0 1-.15.018Zm.809 3.009a.615.615 0 0 1-.366-1.11c.584-.43 2.086-1.185 2.882-1.397a.615.615 0 0 1 .316 1.19c-.624.165-2.003.855-2.467 1.197a.613.613 0 0 1-.365.12Zm20.123-3.009c-.05 0-.1-.007-.15-.02-.559-.139-2.096-.251-2.737-.166a.616.616 0 0 1-.161-1.22c.816-.108 2.493.017 3.197.193a.616.616 0 0 1-.15 1.212Zm-.809 3.01a.612.612 0 0 1-.365-.121c-.464-.342-1.843-1.032-2.467-1.198a.615.615 0 1 1 .316-1.189c.796.212 2.298.966 2.881 1.397a.615.615 0 0 1-.365 1.11Z"/><path fill="#495059" d="M47.921 28.098c-3.687 0-7.094-.504-9.576-1.008-4.04-.82-7.895-2.083-10.574-3.466a.615.615 0 1 1 .565-1.093c4.216 2.176 14.381 5.214 23.71 4.101a.616.616 0 0 1 .146 1.222c-1.44.172-2.876.244-4.27.244Z"/><path fill="#495059" d="M42.39 26.395a.56.56 0 0 0-.381.53v1.467c0 1.136.883 2.103 2.018 2.144a2.095 2.095 0 0 0 2.171-2.094v-1.517a.56.56 0 0 0-.382-.53 5.391 5.391 0 0 0-3.425 0Zm-8.068-3.701a3.257 3.257 0 0 1-2.902-1.778l-.505-.992c-.49-.961.39-2.05 1.433-1.771l.873.232a.976.976 0 0 0 1.229-.966 4.49 4.49 0 0 1 .234-1.57c1.28-3.799 6.753-3.799 8.032 0a4.49 4.49 0 0 1 .234 1.57.976.976 0 0 0 1.229.966l.873-.232c1.043-.278 1.922.81 1.433 1.771l-.505.992a3.257 3.257 0 0 1-2.902 1.778h-8.756Z"/><path fill="#fff" d="M37.49 19.551a.615.615 0 0 1-.435-1.05l2.42-2.42a.615.615 0 1 1 .87.87l-2.42 2.42a.613.613 0 0 1-.434.18Z"/><path fill="#fff" d="M39.91 19.551a.613.613 0 0 1-.435-.18l-2.42-2.42a.615.615 0 1 1 .87-.87l2.42 2.42a.615.615 0 0 1-.435 1.05Z"/><path fill="#B77866" d="m24.6 40.7-2.23.597.739 2.753a1.154 1.154 0 0 0 2.23-.597l-.739-2.754Z"/><path fill="#DEE2E5" d="M18.83 24.003a14.887 14.887 0 0 0 .972 11.335l2.023 3.908 2.223-.596-3.917-14.618c-.175-.655-1.097-.675-1.302-.029Z"/><path fill="#BD4568" d="m26.325 40.237-5.68 1.522a.555.555 0 0 1-.679-.393l-.262-.977a.555.555 0 0 1 .393-.68l5.679-1.522c.296-.08.6.096.68.393l.262.977c.08.296-.097.6-.393.68Z"/></g></g><defs><radialGradient id="b" cx="0" cy="0" r="1" gradientTransform="rotate(56.931 10.363 -.249) scale(144.161 2536.15)" gradientUnits="userSpaceOnUse"><stop stop-color="#467EEE" stop-opacity=".42"/><stop offset="1" stop-color="#6C6C6C" stop-opacity="0"/></radialGradient><radialGradient id="c" cx="0" cy="0" r="1" gradientTransform="rotate(45.876 2.895 6.72) scale(111.163 161.681)" gradientUnits="userSpaceOnUse"><stop stop-color="#fff" stop-opacity=".8"/><stop offset="1" stop-color="#fff" stop-opacity="0"/></radialGradient><clipPath id="d"><path fill="#fff" d="M16.5 13h42v42h-42z"/></clipPath><filter id="a" width="76" height="76" x=".5" y="0" color-interpolation-filters="sRGB" filterUnits="userSpaceOnUse"><feFlood flood-opacity="0" result="BackgroundImageFix"/><feColorMatrix in="SourceAlpha" result="hardAlpha" values="0 0 0 0 0 0 0 0 0 0 0 0 0 0 0 0 0 0 127 0"/><feOffset dy="4"/><feGaussianBlur stdDeviation="2"/><feComposite in2="hardAlpha" operator="out"/><feColorMatrix values="0 0 0 0 0 0 0 0 0 0 0 0 0 0 0 0 0 0 0.25 0"/><feBlend in2="BackgroundImageFix" result="effect1_dropShadow_2569_3081"/><feBlend in="SourceGraphic" in2="effect1_dropShadow_2569_3081" result="shape"/></filter></defs></svg>
